X:6
T:Eirik Nirsas vals
S:Christina Eketorp
R:Waltz
O:Sweden
N:from \AA{}s
M:3/4
C:Eirik Nirsa
A:J\"amtland
K:DDor
|: A,2 | \
A,2 A2 A2 | A2 ^GABA | A2 G2 G2 | G2 ^FGAG |\
A,2 F2 F2 | F2 EFAG  | F2 E2 E2 | EGFED^C |
A,2 A2 A2 | A2 ^GABA | A2 G2 G2 | G2 ^FGAG |\
F2 AGFE   | D2 ^CDEG | FE D2 D2 | D4 :|
|: A,2 | \
A,2 D2 D2 | D2 E2 F2 | FE D2 E2 | ^C4 A,2 | \
A,2 F2 F2 | F2 EFAG  | F2 E2 E2 | EGFED^C |
A,2 D2 D2 | D2 E2 F2 | FE D2 E2 | ^C4 E2 |\
F2 AGFE   | D2 ^CDEG | FE D2 D2 | D6 :|**
